X: 39754
T: Thaidhg A Rún
R: reel
M: 4/4
K: Gmajor
GE|DEGA B2 GB|c2Ac B2 GE|DEGA Bdge|dBAB G2 GE|
DEGA B2 GB|c2Ac B2 GE|DEGA Bdge|dBAB G4|
Bddd cded|dedB AB G2|Bddd edge|dBAB G3 z|
BddB c4|(3BcB GB ABGE|DEGA Bdge|dBAB G4|

